image/china-on4.svg

<svg width="34" height="34" viewBox="0 0 34 34" fill="none" xmlns="http://www.w3.org/2000/svg">
<path d="M24.4998 2H9.33314C7.65787 2 6.2998 3.35807 6.2998 5.03333V29.3C6.2998 30.9753 7.65787 32.3333 9.33314 32.3333H24.4998C26.1751 32.3333 27.5331 30.9753 27.5331 29.3V5.03333C27.5331 3.35807 26.1751 2 24.4998 2Z" stroke="#E03D3B" stroke-width="2" stroke-linecap="round" stroke-linejoin="round"/>
<path d="M16.9165 28.9431H16.9361" stroke="#E03D3B" stroke-width="2" stroke-linecap="round" stroke-linejoin="round"/>
<rect x="9.35156" y="5.31958" width="15.1294" height="20.4824" rx="1" stroke="#E03D3B" stroke-width="2" stroke-linejoin="round"/>
</svg>

<?xml version="1.0" encoding="UTF-8" standalone="no"?>
<svg width="34" xmlns="http://www.w3.org/2000/svg" fill="none" viewBox="0 0 34 34" height="34">
 <path stroke-linejoin="round" stroke="#E03D3B" stroke-width="2" stroke-linecap="round" d="m24.5 2h-15.167c-1.6751 0-3.0332 1.3581-3.0332 3.0333v24.267c0 1.675 1.3581 3.033 3.0333 3.033h15.167c1.675 0 3.033-1.358 3.033-3.033v-24.267c0-1.6749-1.358-3.033-3.033-3.033z"/>
 <path stroke-linejoin="round" stroke="#E03D3B" stroke-width="2" stroke-linecap="round" d="m16.916 28.943h0.02"/>
 <rect stroke-linejoin="round" rx="1" height="20.482" width="15.129" stroke="#E03D3B" y="5.3196" x="9.3516" stroke-width="2"/>
</svg>
